**kern	**kern	**dynam
*part1	*part1	*part1
*staff2	*staff1	*
*I"Piano	*	*
*clefF4	*clefG2	*
*k[f#]	*k[f#]	*
=1	=1	=1
*^	*	*
4.D	4FF# 4F#	16r	.
.	.	(8cnL 8d 8a	<
.	.	8c 8d 8a	[
.	8GG 8G	.	.
.	.	16cJk) 16d 16g	.
*v	*v	*	*
=	=	=
4.AA 4.E-X 4.A	16r	.
.	(8cL 8e-X 8f#	.
.	8c 8e- 8f#	.
.	16cJk) 16e- 16f# 16cc	.
=	=	=
!	!	!LO:DY:a
4.GG 4.C 4.En 4.G	16r	rfz
.	8cL 8en 8g 8cc	.
.	8c 8e 8g 8cc	.
.	16cJk 16e 16g	.
=	=	=
!	!	!LO:DY:a
4.CC 4.GG 4.E	16r	>]
.	8GL 8c 8g	.
.	8G 8c 8g	.
.	16GJk 16c 16e	.
=	=	=
*^	*	*
(4D	4.DD 4.GG	16r	<
.	.	8GL 8B 8d	.
.	.	8G 8B 8d	.
8C#X	.	.	[
.	.	[16GJk [16B-X [16e	.
=	=	=	=
8CnL	4DD	16GKL] 16B-] 16e]	.
.	.	8A 8d 8f#	.
8BBn	.	.	.
.	.	8G 8d 8g	.
8AAJ)	8DD#X	.	.
.	.	16F#Jk 16c	.
*v	*v	*	*
=	=	=
!	!	!LO:DY:a
(4EE 4GG 4E	16r	<
.	8GL 8B	.
.	8G 8B 8c#X	.
8DD) 8D	.	[
.	16GJk 16B 16d	.
=	=	=
*-	*-	*-
!!!system-decoration: {(s1,s2)}
